docs/assets/images/icons/svg/features/clipboard.svg

<svg xmlns="http://www.w3.org/2000/svg" viewBox="0 0 511.879 511.879"><circle cx="255.94" cy="255.94" r="285.94" fill="#ffe356"/><path fill="#6b7f9e" d="M68.46 39.189h305.894v443.177H68.46z"/><path fill="#fff" d="M83.217 63.017h276.26v394.674H83.217z"/><path d="M182.883 49.107h76.927c9.072 0 16.571 7.499 16.571 16.571v19.957H166.312V65.678c0-9.071 7.499-16.571 16.571-16.571z" fill="#ecf0f1"/><path d="M276.381 77.774v7.741H166.312v-7.741zm-55.034-59.873c7.862 0 14.273 6.411 14.273 14.394v16.813h-28.666V32.295c-.001-7.862 6.41-14.394 14.393-14.394zm-55.519 128.091h162.2v7.015h-162.2v-7.015zm0 237.192h162.2v7.015h-162.2v-7.015zm0-47.415h162.2v7.015h-162.2v-7.015zm0-47.414h162.2v7.015h-162.2v-7.015zm0-47.414h162.2v7.015h-162.2v-7.015zm0-47.414h162.2v7.015h-162.2v-7.015z" fill="#c6cbd6"/><g fill="#83cf8f"><path d="M130.631 136.195c6.532 0 11.854 5.322 11.854 11.854s-5.322 11.854-11.854 11.854c-6.532 0-11.854-5.322-11.854-11.854s5.322-11.854 11.854-11.854zm0 239.247c6.532 0 11.854 5.322 11.854 11.854 0 6.532-5.322 11.854-11.854 11.854-6.532 0-11.854-5.322-11.854-11.854 0-6.532 5.322-11.854 11.854-11.854zm0-47.535c6.532 0 11.854 5.322 11.854 11.854 0 6.532-5.322 11.854-11.854 11.854-6.532 0-11.854-5.322-11.854-11.854 0-6.532 5.322-11.854 11.854-11.854zm0-47.535c6.532 0 11.854 5.322 11.854 11.854 0 6.532-5.322 11.854-11.854 11.854-6.532 0-11.854-5.322-11.854-11.854 0-6.532 5.322-11.854 11.854-11.854zm0-48.14c6.532 0 11.854 5.322 11.854 11.854s-5.322 11.854-11.854 11.854c-6.532 0-11.854-5.322-11.854-11.854s5.322-11.854 11.854-11.854zm0-48.139c6.532 0 11.854 5.322 11.854 11.854 0 6.532-5.322 11.854-11.854 11.854-6.532 0-11.854-5.322-11.854-11.854 0-6.532 5.322-11.854 11.854-11.854z"/><circle cx="368.064" cy="152.765" r="75.234"/></g><path fill="#fff" d="M346.897 386.812l17.539 13.91 119.503-151.798-17.66-13.789z"/><path fill="#c6cbd6" d="M433.138 313.393l3.507-4.354-17.538-13.789-3.508 4.354z"/><path fill="#ff7069" d="M343.148 416.567l21.288-15.845-17.539-13.91-10.402 24.554z"/><path fill="#f7635b" d="M343.148 416.567l21.288-15.845-3.75-3.024-18.869 17.901z"/><path d="M481.64 223.161l10.402 8.104c2.903 2.298 3.145 6.652.726 9.676l-55.518 70.516-20.683-16.329 55.518-70.516c2.419-3.145 6.773-3.871 9.676-1.572l-.121.121z" fill="#ff7069"/><path d="M490.833 239.611l-7.257 9.193-17.78 22.498-30.601 38.826.242.242 1.572 1.21 29.755-37.738 25.763-32.779c2.419-3.145 2.056-7.499-.726-9.676l-.484-.363c1.572 2.54 1.451 6.048-.605 8.709l.121-.122z" fill="#f7635b"/><path fill="#666" d="M328.028 428.179l.726.483 14.394-12.095-6.653-5.201z"/><path d="M464.465 234.168l24.07 19.232c.726.726.847 1.572.121 2.298l-32.295 41.004-.847.605-4.112 1.451c-2.056.605-3.145-2.056-.847-3.145l3.629-1.21 30.843-39.189-22.86-18.264 2.177-2.661.121-.121z" fill="#6b7f9e"/><path fill="#c6cbd6" d="M362.984 399.512l1.452 1.21 68.702-87.329-1.452-1.089z"/><path d="M409.552 170.062h-57.574l-24.191-55.276h-14.998v-6.894h19.595l24.191 55.276h53.099v6.894h-.122zm11.006-41.487l2.782-6.894h-76.08l2.782 6.894h70.516zm-62.291 20.804l2.782 6.894h48.382l2.782-6.894h-53.946zm59.51-13.789h-64.953l2.782 6.894h59.51l2.782-6.894h-.121zm-8.346 51.889c0 5.685-4.596 10.402-10.402 10.402-5.685 0-10.402-4.596-10.402-10.402 0-5.685 4.596-10.402 10.402-10.402 5.684 0 10.402 4.597 10.402 10.402zm-34.593 0c0 5.685-4.596 10.402-10.402 10.402-5.685 0-10.402-4.596-10.402-10.402 0-5.685 4.596-10.402 10.402-10.402 5.684 0 10.402 4.597 10.402 10.402z" fill="#fff"/></svg>

<?xml version="1.0" encoding="iso-8859-1"?>
<!-- Generator: Adobe Illustrator 19.0.0, SVG Export Plug-In . SVG Version: 6.00 Build 0)  -->
<svg version="1.1" id="Layer_1" xmlns="http://www.w3.org/2000/svg" xmlns:xlink="http://www.w3.org/1999/xlink" x="0px" y="0px"
	 viewBox="0 0 511.879 511.879" style="enable-background:new 0 0 511.879 511.879;" xml:space="preserve">
<circle style="fill:#FFE356;" cx="255.94" cy="255.94" r="285.94"/>
<polygon style="fill:#6B7F9E;" points="68.46,39.189 374.354,39.189 374.354,482.366 68.46,482.366 "/>
<polygon style="fill:#FFFFFF;" points="83.217,63.017 359.477,63.017 359.477,457.691 83.217,457.691 "/>
<path style="fill:#ECF0F1;" d="M182.883,49.107h76.927c9.072,0,16.571,7.499,16.571,16.571v19.957H166.312V65.678
	C166.312,56.607,173.811,49.107,182.883,49.107z"/>
<g>
	<polygon style="fill:#C6CBD6;" points="276.381,77.774 276.381,85.515 166.312,85.515 166.312,77.774 	"/>
	<path style="fill:#C6CBD6;" d="M221.347,17.901L221.347,17.901c7.862,0,14.273,6.411,14.273,14.394v16.813h-28.666V32.295
		C206.953,24.433,213.364,17.901,221.347,17.901z"/>
	<path style="fill:#C6CBD6;" d="M165.828,145.992h162.2v7.015h-162.2V145.992z M165.828,383.184h162.2v7.015h-162.2V383.184z
		 M165.828,335.769h162.2v7.015h-162.2V335.769z M165.828,288.355h162.2v7.015h-162.2V288.355z M165.828,240.941h162.2v7.015h-162.2
		V240.941z M165.828,193.527h162.2v7.015h-162.2V193.527z"/>
</g>
<g>
	<path style="fill:#83CF8F;" d="M130.631,136.195c6.532,0,11.854,5.322,11.854,11.854s-5.322,11.854-11.854,11.854
		c-6.532,0-11.854-5.322-11.854-11.854S124.099,136.195,130.631,136.195z M130.631,375.442c6.532,0,11.854,5.322,11.854,11.854
		c0,6.532-5.322,11.854-11.854,11.854c-6.532,0-11.854-5.322-11.854-11.854C118.777,380.764,124.099,375.442,130.631,375.442z
		 M130.631,327.907c6.532,0,11.854,5.322,11.854,11.854c0,6.532-5.322,11.854-11.854,11.854c-6.532,0-11.854-5.322-11.854-11.854
		C118.777,333.229,124.099,327.907,130.631,327.907z M130.631,280.372c6.532,0,11.854,5.322,11.854,11.854
		c0,6.532-5.322,11.854-11.854,11.854c-6.532,0-11.854-5.322-11.854-11.854C118.777,285.694,124.099,280.372,130.631,280.372z
		 M130.631,232.232c6.532,0,11.854,5.322,11.854,11.854s-5.322,11.854-11.854,11.854c-6.532,0-11.854-5.322-11.854-11.854
		S124.099,232.232,130.631,232.232z M130.631,184.093c6.532,0,11.854,5.322,11.854,11.854c0,6.532-5.322,11.854-11.854,11.854
		c-6.532,0-11.854-5.322-11.854-11.854C118.777,189.415,124.099,184.093,130.631,184.093z"/>
	<circle style="fill:#83CF8F;" cx="368.064" cy="152.765" r="75.234"/>
</g>
<polygon style="fill:#FFFFFF;" points="346.897,386.812 364.436,400.722 483.939,248.924 466.279,235.135 "/>
<polygon style="fill:#C6CBD6;" points="433.138,313.393 436.645,309.039 419.107,295.25 415.599,299.604 "/>
<polygon style="fill:#FF7069;" points="343.148,416.567 364.436,400.722 346.897,386.812 336.495,411.366 "/>
<polygon style="fill:#F7635B;" points="343.148,416.567 364.436,400.722 360.686,397.698 341.817,415.599 "/>
<path style="fill:#FF7069;" d="M481.64,223.161l10.402,8.104c2.903,2.298,3.145,6.652,0.726,9.676l-55.518,70.516l-20.683-16.329
	l55.518-70.516c2.419-3.145,6.773-3.871,9.676-1.572L481.64,223.161z"/>
<path style="fill:#F7635B;" d="M490.833,239.611l-7.257,9.193l-17.78,22.498l-30.601,38.826l0.242,0.242l1.572,1.21l29.755-37.738
	l25.763-32.779c2.419-3.145,2.056-7.499-0.726-9.676l-0.484-0.363c1.572,2.54,1.451,6.048-0.605,8.709L490.833,239.611z"/>
<polygon style="fill:#666666;" points="328.028,428.179 328.754,428.662 343.148,416.567 336.495,411.366 "/>
<path style="fill:#6B7F9E;" d="M464.465,234.168l24.07,19.232c0.726,0.726,0.847,1.572,0.121,2.298l-32.295,41.004l-0.847,0.605
	l-4.112,1.451c-2.056,0.605-3.145-2.056-0.847-3.145l3.629-1.21l30.843-39.189l-22.86-18.264l2.177-2.661L464.465,234.168z"/>
<polygon style="fill:#C6CBD6;" points="362.984,399.512 364.436,400.722 433.138,313.393 431.686,312.304 "/>
<path style="fill:#FFFFFF;" d="M409.552,170.062h-57.574l-24.191-55.276h-14.998v-6.894h19.595l24.191,55.276h53.099v6.894H409.552z
	 M420.558,128.575l2.782-6.894h-76.08l2.782,6.894H420.558z M358.267,149.379l2.782,6.894h48.382l2.782-6.894H358.267z
	 M417.777,135.59h-64.953l2.782,6.894h59.51l2.782-6.894H417.777z M409.431,187.479c0,5.685-4.596,10.402-10.402,10.402
	c-5.685,0-10.402-4.596-10.402-10.402c0-5.685,4.596-10.402,10.402-10.402C404.713,177.077,409.431,181.674,409.431,187.479z
	 M374.838,187.479c0,5.685-4.596,10.402-10.402,10.402c-5.685,0-10.402-4.596-10.402-10.402c0-5.685,4.596-10.402,10.402-10.402
	C370.12,177.077,374.838,181.674,374.838,187.479z"/>
<g>
</g>
<g>
</g>
<g>
</g>
<g>
</g>
<g>
</g>
<g>
</g>
<g>
</g>
<g>
</g>
<g>
</g>
<g>
</g>
<g>
</g>
<g>
</g>
<g>
</g>
<g>
</g>
<g>
</g>
</svg>
